X:81
T:Hanover Waltz. LIT.081
M:3/8
Q:3/8=90
L:1/8
B:Wm. Litten MS, 1802
Z:Village Music Project 2017 Anne Wride
K:G
gbc' | d'2d' | c'ad' | bgg | gbc' | d'2e' | c'ad' | g2z :|
|: bbb | d'c'c' | aaa | c'bb | ggg | aaa | d'c'b | b2a |
bbb | c'c'c' | aaa | bbb | ggg | aaa | d'c'/b/a | g2 B:Wm. Litten MS, 1802
B:Wm. Litten MS, 1802
Z:|

